{***********************************************
Play Note Example
Author: Native Instruments
Written by: Yaron Eshkar
Modified: November 11, 2021
*************************************************}

on init
    declare ui_switch $play
end on

on ui_control($play)
    if($play=1)
        play_note(60,127,0,-1)
    else
        note_off($ALL_EVENTS)
    end if
end on

