{***********************************************
Play Note Listener Example
Author: Native Instruments
Written by: Yaron Eshkar
Modified: January 28, 2022
*************************************************}

on init
    declare ui_switch $play
    set_listener($NI_SIGNAL_TIMER_BEAT,1)
end on

on listener
   if($play=1)
        play_note(84,127,0,1000)
    else
        note_off($ALL_EVENTS)
    end if
end on


