{***********************************************
Purge Group Example
Author: Native Instruments
Written by: Yaron Eshkar
Modified: December 29, 2021
*************************************************}

on init
	declare ui_switch $purge_groups
	declare $i
end on

on ui_control($purge_groups)
	$i := 0
	while($i<$NUM_GROUPS)
		purge_group($i,$purge_groups-1)
		inc($i)
	end while
end on
