{***********************************************
Choral Test
Author: Native Instruments
Written by: Yaron Eshkar
Modified: July 15, 2020
*************************************************}

on init

  set_script_title("Choral Test")
  set_ui_height(3)
  make_perfview
  set_snapshot_type(1)

  declare ui_button $InvertPhase
  declare ui_button $Scatter

  declare ui_menu $Mode
    add_menu_item ($Mode, "Synth",0)
    add_menu_item ($Mode, "Ensemble",1)
    add_menu_item ($Mode, "Dimension",2)
    add_menu_item ($Mode, "Universal",3)
    make_persistent($Mode)

  declare ui_knob $Rate (0, 1000000, 1)
  declare ui_knob $Amount (0, 1000000, 1)
  declare ui_knob $Delay (0, 1000000, 1)
  declare ui_knob $Feedback (0, 1000000, 1)
  declare ui_knob $Voices (0, 1000000, 1)
  declare ui_knob $Width (0, 1000000, 1)
  declare ui_knob $Mix (0, 1000000, 1)
  declare ui_knob $Output (0, 1000000, 1)

  set_engine_par($ENGINE_PAR_EFFECT_TYPE,$EFFECT_TYPE_CHORAL,-1,0,1)

  set_engine_par($ENGINE_PAR_CHORAL_AMOUNT,1000000,-1,0,1)
  set_engine_par($ENGINE_PAR_CHORAL_RATE,1000000,-1,0,1)
  set_engine_par($ENGINE_PAR_CHORAL_DELAY,1000000,-1,0,1)
  set_engine_par($ENGINE_PAR_CHORAL_VOICES,1000000,-1,0,1)
  set_engine_par($ENGINE_PAR_CHORAL_WIDTH,1000000,-1,0,1)
  set_engine_par($ENGINE_PAR_CHORAL_FEEDBACK,1000000,-1,0,1)
  set_engine_par($ENGINE_PAR_CHORAL_MIX,1000000,-1,0,1)
  set_engine_par($ENGINE_PAR_INSERT_EFFECT_OUTPUT_GAIN,1000000,-1,0,1)

  set_engine_par($ENGINE_PAR_CHORAL_INVERT_PHASE,1,-1,0,1)
  set_engine_par($ENGINE_PAR_CHORAL_SCATTER,1,-1,0,1)
  set_engine_par($ENGINE_PAR_CHORAL_MODE,$NI_CHORAL_MODE_SYNTH,-1,0,1)

  {set_engine_par($ENGINE_PAR_FLAIR_RATE_UNIT,17,-1,0,1)}

end on

on ui_control ($InvertPhase)
    set_engine_par($ENGINE_PAR_CHORAL_INVERT_PHASE,$InvertPhase,-1,0,1)
end on

on ui_control ($Scatter)
    set_engine_par($ENGINE_PAR_CHORAL_SCATTER,$Scatter,-1,0,1)
end on

on ui_control ($Mode)
  select ($Mode) 
        case 0
        set_engine_par($ENGINE_PAR_CHORAL_MODE,$NI_CHORAL_MODE_SYNTH,-1,0,1)
        case 1
        set_engine_par($ENGINE_PAR_CHORAL_MODE,$NI_CHORAL_MODE_ENSEMBLE,-1,0,1)
        case 2
        set_engine_par($ENGINE_PAR_CHORAL_MODE,$NI_CHORAL_MODE_DIMENSION,-1,0,1)
        case 3
        set_engine_par($ENGINE_PAR_CHORAL_MODE,$NI_CHORAL_MODE_UNIVERSAL,-1,0,1)
  end select
end on

on ui_control ($Amount)
  set_engine_par($ENGINE_PAR_CHORAL_AMOUNT,$Amount,-1,0,1)
end on

on ui_control ($Rate)
  set_engine_par($ENGINE_PAR_CHORAL_RATE,$Rate,-1,0,1)
end on

on ui_control ($Delay)
  set_engine_par($ENGINE_PAR_CHORAL_DELAY,$Delay,-1,0,1)
end on

on ui_control ($Feedback)
  set_engine_par($ENGINE_PAR_CHORAL_FEEDBACK,$Feedback,-1,0,1)
end on

on ui_control ($Voices)
  set_engine_par($ENGINE_PAR_CHORAL_VOICES,$Voices,-1,0,1)
end on

on ui_control ($Width)
  set_engine_par($ENGINE_PAR_CHORAL_WIDTH,$Width,-1,0,1)
end on

on ui_control ($Mix)
  set_engine_par($ENGINE_PAR_CHORAL_MIX,$Mix,-1,0,1)
end on

on ui_control ($Output)
  set_engine_par($ENGINE_PAR_INSERT_EFFECT_OUTPUT_GAIN,$Output,-1,0,1)
end on