{***********************************************
Out Of Bounds User Zone Array Test
Author: Native Instruments
Written by: Yaron Eshkar
Modified: April 21, 2022
*************************************************}

on init
    set_num_user_zones(5555555555555)
    set_zone_par(%NI_USER_ZONE_IDS[5555555555555],$ZONE_PAR_GROUP,0)
end on