{***********************************************
Performance View Load Test
Author: Native Instruments
Written by: Yaron Eshkar
Modified: April 25, 2022
*************************************************}

on init
    load_performance_view(instrument)
end on