{***********************************************
Play Note Event ID Test
Author: Native Instruments
Written by: Yaron Eshkar
Modified: March 9, 2022
*************************************************}

on init
    declare ui_button $play
    declare $note_id
end on

on note
    if($play=1)
        ignore_event($ALL_EVENTS)
        $note_id := play_note($EVENT_NOTE,$EVENT_VELOCITY,0,-1)
    end if
end on

