{***********************************************
Transparent Limiter Test
Author: Native Instruments
Written by: Yaron Eshkar
Modified: September 15, 2021
*************************************************}

on init
	declare ui_slider $threshold (0,1000000)
	declare ui_slider $release (0,1000000)
	declare ui_slider $ceiling (0,1000000)
	set_engine_par($ENGINE_PAR_EFFECT_TYPE,$EFFECT_TYPE_TRANSLIM,-1,0,1)
end on

on ui_control($threshold)
	set_engine_par($ENGINE_PAR_TRANSLIM_THRESHOLD,$threshold,-1,0,1)
end on

on ui_control($release)
	set_engine_par($ENGINE_PAR_TRANSLIM_RELEASE,$release,-1,0,1)
end on

on ui_control($ceiling)
	set_engine_par($ENGINE_PAR_TRANSLIM_CEILING,$ceiling,-1,0,1)
end on