{***********************************************
Engine Par IRC Auto Gain Test
Author: Native Instruments
Written by: Yaron Eshkar
Modified: October 07, 2022
*************************************************}

on init
    make_perfview
    declare ui_switch $switch
    declare ui_label $label(1,1)
end on

on ui_control ($switch)
    set_engine_par($ENGINE_PAR_IRC_AUTO_GAIN,$switch,-1,0,1)
    set_text($label,get_engine_par($ENGINE_PAR_IRC_AUTO_GAIN,-1,0,1))
end on