{***********************************************
EVENT PAR MOD VALUE EX ID Test
Author: Native Instruments
Written by: Yaron Eshkar
Modified: November 17, 2022
*************************************************}

on init
    message("")
    make_perfview
    declare ui_slider $value_1(0,1000000)
    declare ui_slider $value_2(0,1000000)
    declare ui_label $sum(1,1)
end on

function set_sum_label
    set_text($sum,$value_1+$value_2)
end function

on ui_control($value_1)
    call set_sum_label
end on

on ui_control($value_2)
    call set_sum_label
end on

on note
    set_event_par_arr($EVENT_ID,$EVENT_PAR_MOD_VALUE_EX_ID,$value_1+$value_2,0)
end on