{***********************************************
Flexible Envelope Test
Author: Native Instruments
Written by: Yaron Eshkar
Modified: October 29, 2022
*************************************************}

on init
    message( "" )
    make_perfview
    declare ui_slider $amp_decay_slider(0,1000000)
    declare ui_label $amp_decay_label(1,1)
    make_persistent($amp_decay_slider)
end on

function set_amp_decay_label
    set_text($amp_decay_label,"Length: " & (1000000 - get_engine_par($ENGINE_PAR_MOD_TARGET_INTENSITY,0,18,-1))/10000 & "%")
end function

function set_amp_decay_slider
    set_engine_par($ENGINE_PAR_MOD_TARGET_INTENSITY,1000000 - $amp_decay_slider,0,18,-1)
    call set_amp_decay_label
end function

on persistence_changed
    call set_amp_decay_label
end on

on ui_control($amp_decay_slider)
    call set_amp_decay_slider
end on

