{***********************************************
Load Performance View Test
Author: Native Instruments
Written by: Yaron Eshkar
Modified: July 03, 2022
*************************************************}

on init
   message("")
   make_perfview
   load_performance_view("instrtument")
end on