{***********************************************
Long Help Tag Test
Author: Native Instruments
Written by: Yaron Eshkar
Modified: March 2, 2022
*************************************************}

on init
    make_perfview
    set_ui_width_px( 1000 )
    declare ui_slider $slider( 0, 1000000 )
    set_control_help( $slider, "Bart Simpson Bart Simpson Bart Simpson Bart Simpson Bart Simpson Bart Simpson Bart Simpson Bart Simpson Bart Simpson Bart Simpson Bart Simpson Bart Simpson Bart Simpson Bart Simpson Bart Simpson Bart Simpson Bart Simpson Bart Simpson Bart Simpson Bart Simpson Bart Simpson Bart Simpson Bart Simpson Bart Simpson Bart Simpson Bart Simpson Bart Simpson Bart Simpson Bart Simpson Bart Simpson Bart Simpson Bart Simpson Bart Simpson Bart Simpson Bart Simpson Bart Simpson Bart Simpson Bart Simpson Bart Simpson Bart Simpson Bart Simpson Bart Simpson Bart Simpson Bart Simpson Bart Simpson Bart Simpson Bart Simpson Bart Simpson"  )
end on