{***********************************************
Loop Par Test
Author: Native Instruments
Written by: Yaron Eshkar
Modified: March 2, 2022
*************************************************}

on init
    declare @sample_path 
        @sample_path := get_folder($GET_FOLDER_PATCH_DIR) & "Samples/sample.wav"

    declare ui_slider $loop_start( 0, 5000 )
    declare ui_slider $loop_length( 5000, 10000 )
    declare ui_switch $reload_sample
    declare ui_switch $empty_sample

    set_num_user_zones(1)

    set_zone_par(%NI_USER_ZONE_IDS[0],$ZONE_PAR_HIGH_VELO,127) { Make sure the zone covers the entire velocity range }
    set_zone_par(%NI_USER_ZONE_IDS[0],$ZONE_PAR_HIGH_KEY,127) { Make sure the zone covers the entire velocity range }

    set_sample(%NI_USER_ZONE_IDS[0],@sample_path)
    set_loop_par(%NI_USER_ZONE_IDS[0],0,$LOOP_PAR_MODE,1)
end on

function empty_sample
    wait_async(set_sample(%NI_USER_ZONE_IDS[0],""))
end function

function reload_sample
    wait_async(set_sample(%NI_USER_ZONE_IDS[0],@sample_path))
end function

function set_loop_points
    set_loop_par(%NI_USER_ZONE_IDS[0],0,$LOOP_PAR_START,$loop_start)
    set_loop_par(%NI_USER_ZONE_IDS[0],0,$LOOP_PAR_LENGTH,$loop_length)
end function

on ui_control($reload_sample)
    call reload_sample
end on

on ui_control($empty_sample)
    call empty_sample
end on

on ui_control($loop_start)
    call set_loop_points
end on

on ui_control($loop_length)
    call set_loop_points
end on