{***********************************************
Message Colors Test
Author: Native Instruments
Written by: Yaron Eshkar
Modified: July 15, 2020
*************************************************}

on init
	message("$KEY_COLOR_RED: " & $KEY_COLOR_RED)
	message("$KEY_COLOR_ORANGE: " & $KEY_COLOR_ORANGE)
	message("$KEY_COLOR_LIGHT_ORANGE: " & $KEY_COLOR_LIGHT_ORANGE)
	message("$KEY_COLOR_WARM_YELLOW: " & $KEY_COLOR_WARM_YELLOW)
	message("$KEY_COLOR_LIME: " & $KEY_COLOR_LIME)
	message("$KEY_COLOR_GREEN: " & $KEY_COLOR_GREEN)
	message("$KEY_COLOR_MINT: " & $KEY_COLOR_MINT)
	message("$KEY_COLOR_CYAN: " & $KEY_COLOR_CYAN)
	message("$KEY_COLOR_TURQUOISE: " & $KEY_COLOR_TURQUOISE)
	message("$KEY_COLOR_BLUE: " & $KEY_COLOR_BLUE)
	message("$KEY_COLOR_PLUM: " & $KEY_COLOR_PLUM)
	message("$KEY_COLOR_VIOLET: " & $KEY_COLOR_VIOLET)
	message("$KEY_COLOR_PURPLE: " & $KEY_COLOR_PURPLE)
	message("$KEY_COLOR_MAGENTA: " & $KEY_COLOR_MAGENTA)
	message("$KEY_COLOR_FUCHSIA: " & $KEY_COLOR_FUCHSIA)
	message("$KEY_COLOR_DEFAULT: " & $KEY_COLOR_DEFAULT)
	message("$KEY_COLOR_INACTIVE: " & $KEY_COLOR_INACTIVE)
	message("$KEY_COLOR_NONE: " & $KEY_COLOR_NONE)
end on