{***********************************************
NKS2 Number Of Groups Test
Author: Native Instruments
Written by: Yaron Eshkar
Modified: April 15, 2024
*************************************************}

on init
    reset_nks_nav()
    declare const $iterations := 50
    declare ui_slider $slider(0,1000000)
    set_control_par(get_ui_id($slider),$CONTROL_PAR_AUTOMATION_ID,0)
    declare $i
    $i := 0
    while($i<$iterations)
        set_nks_nav_name($i,-1,$i)
        set_nks_nav_name($i,0,"Filter")
        set_nks_nav_par($i,0,0)
        inc($i)
    end while
end on