{***********************************************
Phasis Test
Author: Native Instruments
Written by: Yaron Eshkar
Modified: July 15, 2020
*************************************************}

on init

	set_script_title("Phasis Test")
	set_ui_height(3)
	make_perfview
	set_snapshot_type(1)

	declare ui_button $Ultra
	declare ui_button $InvertPhase
	declare ui_button $InvertModMix

	declare ui_knob $Rate (0, 1000000, 1)
	declare ui_knob $Amount (0, 1000000, 1)
	declare ui_knob $Stereo (0, 1000000, 1)
	declare ui_knob $Feedback (0, 1000000, 1)
	declare ui_knob $Notches (2, 12, 1)
	declare ui_knob $Mix (0, 1000000, 1)
	declare ui_knob $Center (0, 1000000, 1)
	declare ui_knob $Spread (0, 1000000, 1)
	declare ui_knob $ModMix (0, 1000000, 1)
	declare ui_knob $Output (0, 1000000, 1)

	set_engine_par($ENGINE_PAR_EFFECT_TYPE,$EFFECT_TYPE_PHASIS,-1,0,1)

	set_engine_par($ENGINE_PAR_PHASIS_RATE,1000000,-1,0,1)
	set_engine_par($ENGINE_PAR_PHASIS_CENTER,0,-1,0,1)
	set_engine_par($ENGINE_PAR_PHASIS_SPREAD,1000000,-1,0,1)
	set_engine_par($ENGINE_PAR_PHASIS_FEEDBACK,1000000,-1,0,1)
	set_engine_par($ENGINE_PAR_PHASIS_MIX,1000000,-1,0,1)
	set_engine_par($ENGINE_PAR_PHASIS_NOTCHES,2,-1,0,1)
	set_engine_par($ENGINE_PAR_PHASIS_AMOUNT,1000000,-1,0,1)
	set_engine_par($ENGINE_PAR_PHASIS_STEREO,1000000,-1,0,1)
	set_engine_par($ENGINE_PAR_PHASIS_MOD_MIX,1000000,-1,0,1)
	set_engine_par($ENGINE_PAR_INSERT_EFFECT_OUTPUT_GAIN,1000000,-1,0,1)

	set_engine_par($ENGINE_PAR_PHASIS_ULTRA,1,-1,0,1)
	set_engine_par($ENGINE_PAR_PHASIS_INVERT_PHASE,1,-1,0,1)
	set_engine_par($ENGINE_PAR_PHASIS_INVERT_MOD_MIX,1,-1,0,1)

	set_engine_par($ENGINE_PAR_PHASIS_RATE_UNIT,4,-1,0,1)

	set_engine_par($ENGINE_PAR_PHASIS_RATE_UNIT,17,-1,0,1)

end on

on ui_control ($Ultra)
	set_engine_par($ENGINE_PAR_PHASIS_ULTRA, $Ultra, -1, 0, 1)
end on

on ui_control ($InvertPhase)
	set_engine_par($ENGINE_PAR_PHASIS_ULTRA, $InvertPhase, -1, 0, 1)
end on

on ui_control ($InvertModMix)
	set_engine_par($ENGINE_PAR_PHASIS_ULTRA, $InvertModMix, -1, 0, 1)
end on

on ui_control($Rate)
	set_engine_par($ENGINE_PAR_PHASIS_RATE,$Rate,-1,0,1)
end on

on ui_control($Amount)
	set_engine_par($ENGINE_PAR_PHASIS_AMOUNT,$Amount,-1,0,1)
end on

on ui_control($Stereo)
	set_engine_par($ENGINE_PAR_PHASIS_STEREO,$Stereo,-1,0,1)
end on

on ui_control($Feedback)
	set_engine_par($ENGINE_PAR_PHASIS_FEEDBACK,$Feedback,-1,0,1)
end on

on ui_control($Notches)
	set_engine_par($ENGINE_PAR_PHASIS_NOTCHES,$Notches,-1,0,1)
end on

on ui_control($Mix)
	set_engine_par($ENGINE_PAR_PHASIS_MIX,$Mix,-1,0,1)
end on

on ui_control($Center)
	set_engine_par($ENGINE_PAR_PHASIS_CENTER,$Center,-1,0,1)
end on

on ui_control($Spread)
	set_engine_par($ENGINE_PAR_PHASIS_SPREAD,$Spread,-1,0,1)
end on

on ui_control($ModMix)
	set_engine_par($ENGINE_PAR_PHASIS_MOD_MIX,$ModMix,-1,0,1)
end on

on ui_control($Output)
	set_engine_par($ENGINE_PAR_INSERT_EFFECT_OUTPUT_GAIN,$Output,-1,0,1)
end on