{***********************************************
Script Warning Test
Author: Native Instruments
Written by: Yaron Eshkar
Modified: October 19, 2022
*************************************************}

on init
    declare %test[2]
    declare $test
    $test := %test[3]
end on
