{***********************************************
Send Effect Test
Author: Faxi Nadu / Ocean Swift
Written by: Yaron Eshkar
Modified: April 16, 2024
*************************************************}

on init 
    set_engine_par($ENGINE_PAR_SEND_EFFECT_TYPE,$EFFECT_TYPE_REVERB,-1,0,$NI_SEND_BUS)
end on

