{***********************************************
Set and Get Zone and Loop Par Test
Author: Native Instruments
Written by: Yaron Eshkar
Modified: July 15, 2020
*************************************************}

on init
	message("")
	declare const $printOn := 1
	set_num_user_zones(1)
	declare $checkResultReturn
	declare $check
	declare $i
	declare $group := 0
	declare $highKey := 127
	declare $lowKey := 0
	declare $highVelo := 127
	declare $lowVelo := 1
	declare $rootKey := 36
	declare $fadeLowKey := 20
	declare $fadeHighKey := 20
	declare $fadeLowVelo := 20
	declare $fadeHighVelo := 20
	declare $volume := 12
	declare $pan := 100
	declare $tune := 12
	declare $sampleStart := 25
	declare $sampleEnd := 1500
	declare $sampleModRange := 500
	declare $loopMode := 1
	declare $loopStart := 100
	declare $loopLength := 500
	declare $loopXfade := 50
	declare $loopCount := 4
	declare $loopTuning	:= 12
end on

on persistence_changed

	wait_async(set_zone_par(%NI_USER_ZONE_IDS[0], $ZONE_PAR_GROUP, $group))
	wait_async(set_zone_par(%NI_USER_ZONE_IDS[0], $ZONE_PAR_HIGH_KEY, $highKey))
	wait_async(set_zone_par(%NI_USER_ZONE_IDS[0], $ZONE_PAR_LOW_KEY, $lowKey))
	wait_async(set_zone_par(%NI_USER_ZONE_IDS[0], $ZONE_PAR_HIGH_VELO, $highVelo))
	wait_async(set_zone_par(%NI_USER_ZONE_IDS[0], $ZONE_PAR_LOW_VELO, $lowVelo))
	wait_async(set_zone_par(%NI_USER_ZONE_IDS[0], $ZONE_PAR_ROOT_KEY, $rootKey))
	wait_async(set_zone_par(%NI_USER_ZONE_IDS[0], $ZONE_PAR_FADE_LOW_KEY, $fadeLowKey))
	wait_async(set_zone_par(%NI_USER_ZONE_IDS[0], $ZONE_PAR_FADE_HIGH_KEY, $fadeHighKey))
	wait_async(set_zone_par(%NI_USER_ZONE_IDS[0], $ZONE_PAR_FADE_LOW_VELO, $fadeLowVelo))
	wait_async(set_zone_par(%NI_USER_ZONE_IDS[0], $ZONE_PAR_FADE_HIGH_VELO, $fadeHighVelo))
	wait_async(set_zone_par(%NI_USER_ZONE_IDS[0], $ZONE_PAR_VOLUME, $volume))
	wait_async(set_zone_par(%NI_USER_ZONE_IDS[0], $ZONE_PAR_PAN, $pan))
	wait_async(set_zone_par(%NI_USER_ZONE_IDS[0], $ZONE_PAR_TUNE, $tune))
	wait_async(set_zone_par(%NI_USER_ZONE_IDS[0], $ZONE_PAR_SAMPLE_START, $sampleStart))
	wait_async(set_zone_par(%NI_USER_ZONE_IDS[0], $ZONE_PAR_SAMPLE_END, $sampleEnd))
	wait_async(set_zone_par(%NI_USER_ZONE_IDS[0], $ZONE_PAR_SAMPLE_MOD_RANGE, $sampleModRange))

	$i := 0
	while ($i<8)
		wait_async(set_loop_par(%NI_USER_ZONE_IDS[0], $i, $LOOP_PAR_MODE, $loopMode))
		wait_async(set_loop_par(%NI_USER_ZONE_IDS[0], $i ,$LOOP_PAR_START, $loopStart))
		wait_async(set_loop_par(%NI_USER_ZONE_IDS[0], $i ,$LOOP_PAR_LENGTH, $loopLength))
		wait_async(set_loop_par(%NI_USER_ZONE_IDS[0], $i, $LOOP_PAR_XFADE, $loopXfade))
		wait_async(set_loop_par(%NI_USER_ZONE_IDS[0], $i, $LOOP_PAR_COUNT, $loopCount))
		wait_async(set_loop_par(%NI_USER_ZONE_IDS[0], $i, $LOOP_PAR_TUNING, $loopTuning))
		inc($i)
	end while

	if ($printOn = 1)
		message("---ZONE PARS---")
		message("ZONE_PAR_HIGH_KEY " & get_zone_par(%NI_USER_ZONE_IDS[0], $ZONE_PAR_HIGH_KEY))
		message("ZONE_PAR_LOW_KEY " & get_zone_par(%NI_USER_ZONE_IDS[0], $ZONE_PAR_LOW_KEY))
		message("ZONE_PAR_LOW_VELO " & get_zone_par(%NI_USER_ZONE_IDS[0], $ZONE_PAR_LOW_VELO))
		message("ZONE_PAR_HIGH_VELO " & get_zone_par(%NI_USER_ZONE_IDS[0], $ZONE_PAR_HIGH_VELO))
		message("ZONE_PAR_FADE_LOW_KEY " & get_zone_par(%NI_USER_ZONE_IDS[0], $ZONE_PAR_FADE_LOW_KEY))
		message("ZONE_PAR_FADE_HIGH_KEY " & get_zone_par(%NI_USER_ZONE_IDS[0], $ZONE_PAR_FADE_HIGH_KEY))
		message("ZONE_PAR_FADE_LOW_VELO " & get_zone_par(%NI_USER_ZONE_IDS[0], $ZONE_PAR_FADE_LOW_VELO))
		message("ZONE_PAR_FADE_HIGH_VELO " & get_zone_par(%NI_USER_ZONE_IDS[0], $ZONE_PAR_FADE_HIGH_VELO))
		message("ZONE_PAR_VOLUME " & get_zone_par(%NI_USER_ZONE_IDS[0], $ZONE_PAR_VOLUME))
		message("ZONE_PAR_PAN " & get_zone_par(%NI_USER_ZONE_IDS[0], $ZONE_PAR_PAN))
		message("ZONE_PAR_TUNE " & get_zone_par(%NI_USER_ZONE_IDS[0], $ZONE_PAR_TUNE))
		message("ZONE_PAR_SAMPLE_START " & get_zone_par(%NI_USER_ZONE_IDS[0], $ZONE_PAR_SAMPLE_START))
		message("ZONE_PAR_SAMPLE_END " & get_zone_par(%NI_USER_ZONE_IDS[0], $ZONE_PAR_SAMPLE_END))
		message("ZONE_PAR_SAMPLE_MOD_RANGE " & get_zone_par(%NI_USER_ZONE_IDS[0], $ZONE_PAR_SAMPLE_MOD_RANGE))
		message("---LOOP PARS---")
		$i := 0
		while ($i<8)
			message("Loop " & $i+1 & " LOOP_PAR_MODE " & get_loop_par(%NI_USER_ZONE_IDS[0], $i,$LOOP_PAR_MODE))
			message("Loop " & $i+1 & " LOOP_PAR_START " & get_loop_par(%NI_USER_ZONE_IDS[0], $i,$LOOP_PAR_START))
			message("Loop " & $i+1 & " LOOP_PAR_LENGTH " & get_loop_par(%NI_USER_ZONE_IDS[0], $i,$LOOP_PAR_LENGTH))
			message("Loop " & $i+1 & " LOOP_PAR_XFADE " & get_loop_par(%NI_USER_ZONE_IDS[0], $i,$LOOP_PAR_XFADE))
			message("Loop " & $i+1 & " LOOP_PAR_COUNT " & get_loop_par(%NI_USER_ZONE_IDS[0], $i,$LOOP_PAR_COUNT))
			message("Loop " & $i+1 & " LOOP_PAR_TUNING " & get_loop_par(%NI_USER_ZONE_IDS[0], $i,$LOOP_PAR_TUNING))
			inc($i)
		end while
	end if

	if (get_zone_par(%NI_USER_ZONE_IDS[0], $ZONE_PAR_HIGH_KEY) # $highKey)
		if ($printOn = 1)
			message ("Failed Getting ZONE_PAR_HIGH_KEY")
		end if
		$checkResultReturn := 1
	end if

	if (get_zone_par(%NI_USER_ZONE_IDS[0], $ZONE_PAR_LOW_KEY) # $lowKey)
		if ($printOn = 1)
			message ("Failed Getting ZONE_PAR_LOW_KEY")
		end if
		$checkResultReturn := 1
	end if

	if (get_zone_par(%NI_USER_ZONE_IDS[0], $ZONE_PAR_HIGH_VELO) # $highVelo)
		if ($printOn = 1)
			message ("Failed Getting ZONE_PAR_HIGH_VELO")
		end if
		$checkResultReturn := 1
	end if

	if (get_zone_par(%NI_USER_ZONE_IDS[0], $ZONE_PAR_LOW_VELO) # $lowVelo)
		if ($printOn = 1)
			message ("Failed Getting ZONE_PAR_LOW_VELO")
		end if
		$checkResultReturn := 1
	end if

	if (get_zone_par(%NI_USER_ZONE_IDS[0], $ZONE_PAR_ROOT_KEY) # $rootKey)
		if ($printOn = 1)
			message ("Failed Getting ZONE_PAR_ROOT_KEY")
		end if
		$checkResultReturn := 1
	end if

	if (get_zone_par(%NI_USER_ZONE_IDS[0], $ZONE_PAR_FADE_LOW_KEY) # $fadeLowKey)
		if ($printOn = 1)
			message (get_zone_par(%NI_USER_ZONE_IDS[0], $ZONE_PAR_FADE_LOW_KEY))
			message ("Failed Getting ZONE_PAR_FADE_LOW_KEY")
		end if
		$checkResultReturn := 1
	end if

	if (get_zone_par(%NI_USER_ZONE_IDS[0], $ZONE_PAR_FADE_HIGH_KEY) # $fadeHighKey)
		if ($printOn = 1)
			message ("Failed Getting ZONE_PAR_FADE_HIGH_KEY")
		end if
		$checkResultReturn := 1
	end if

	if (get_zone_par(%NI_USER_ZONE_IDS[0], $ZONE_PAR_FADE_LOW_VELO) # $fadeLowVelo)
		if ($printOn = 1)
			message ("Failed Getting ZONE_PAR_FADE_LOW_VELO")
		end if
		$checkResultReturn := 1
	end if

	if (get_zone_par(%NI_USER_ZONE_IDS[0], $ZONE_PAR_FADE_HIGH_VELO) # $fadeHighVelo)
		if ($printOn = 1)
			message ("Failed Getting ZONE_PAR_FADE_HIGH_VELO")
		end if
		$checkResultReturn := 1
	end if

	if (get_zone_par(%NI_USER_ZONE_IDS[0], $ZONE_PAR_VOLUME) # $volume)
		if ($printOn = 1)
			message ("Failed Getting ZONE_PAR_VOLUME")
		end if
		$checkResultReturn := 1
	end if

	if (get_zone_par(%NI_USER_ZONE_IDS[0], $ZONE_PAR_PAN) # $pan)
		if ($printOn = 1)
			message ("Failed Getting ZONE_PAR_FADE_HIGH_VELO")
		end if
		$checkResultReturn := 1
	end if

	if (get_zone_par(%NI_USER_ZONE_IDS[0], $ZONE_PAR_TUNE) # $tune)
		if ($printOn = 1)
			message ("Failed Getting ZONE_PAR_TUNE")
		end if
		$checkResultReturn := 1
	end if

	if (get_zone_par(%NI_USER_ZONE_IDS[0], $ZONE_PAR_SAMPLE_START) # $sampleStart)
		if ($printOn = 1)
			message ("Failed Getting ZONE_PAR_SAMPLE_START")
		end if
		$checkResultReturn := 1
	end if

	if (get_zone_par(%NI_USER_ZONE_IDS[0], $ZONE_PAR_SAMPLE_END) # $sampleEnd)
		if ($printOn = 1)
			message ("Failed Getting ZONE_PAR_SAMPLE_END")
		end if
		$checkResultReturn := 1
	end if

	if (get_zone_par(%NI_USER_ZONE_IDS[0], $ZONE_PAR_SAMPLE_MOD_RANGE) # $sampleModRange)
		if ($printOn = 1)
			message ("Failed Getting $ONE_PAR_SAMPLE_MOD_RANGE")
		end if
		$checkResultReturn := 1
	end if

	$i := 0
	while ($i<8)

		if (get_loop_par(%NI_USER_ZONE_IDS[0], $i,$LOOP_PAR_MODE) # $loopMode)
			if ($printOn = 1)
				message ("Failed Getting LOOP_PAR_MODE")
			end if
			$checkResultReturn := 1
		end if

		if (get_loop_par(%NI_USER_ZONE_IDS[0], $i,$LOOP_PAR_START) # $loopStart)
			if ($printOn = 1)
				message ("Failed Getting LOOP_PAR_START")
			end if
			$checkResultReturn := 1
		end if

		if (get_loop_par(%NI_USER_ZONE_IDS[0], $i,$LOOP_PAR_LENGTH) # $loopLength)
			if ($printOn = 1)
				message ("Failed Getting LOOP_PAR_LENGTH")
			end if
			$checkResultReturn := 1
		end if

		if (get_loop_par(%NI_USER_ZONE_IDS[0], $i,$LOOP_PAR_XFADE) # $loopXfade)
			if ($printOn = 1)
				message ("Failed Getting LOOP_PAR_XFADE")
			end if
			$checkResultReturn := 1
		end if

		if (get_loop_par(%NI_USER_ZONE_IDS[0], $i,$LOOP_PAR_COUNT) # $loopCount)
			if ($printOn = 1)
				message ("Failed Getting$LOOP_PAR_COUNT")
			end if
			$checkResultReturn := 1
		end if

		if (get_loop_par(%NI_USER_ZONE_IDS[0], $i,$LOOP_PAR_TUNING) # $loopTuning)
			if ($printOn = 1)
				message ("Failed Getting LOOP_PAR_TUNING")
			end if
			$checkResultReturn := 1
		end if

	inc($i)

	end while

	if ($printOn = 1)
		if ($checkResultReturn = 0)
			message("PASS")
		else
			message ("FAIL")
		end if
	end if

end on