{***********************************************
Signbit and Signum Test
Author: Native Instruments
Written by: Evil Dragon
Modified: November 3, 2022
*************************************************}

on init
	declare ui_knob $K (-10, 10, 1)
end on

on ui_control ($K)
	message("signbit: " & signbit($K) & " | signum: " & sgn($K))
end on