{***********************************************
Variable Name Duplicate Test
Author: Native Instruments
Written by: Yaron Eshkar
Modified: April 26, 2022
*************************************************}

on init
    expose_controls
    declare ui_table %control[16]( 10, 2, 16 )
    declare ui_slider $control(0,1000000)
    declare ui_text_edit @control
    declare !control[16]
    declare ~control
    declare ?control[16]
end on