{***********************************************
Wavetable Form Shapers Test
Author: Native Instruments
Written by: Mario Kruselj
Modified: August 15, 2023
*************************************************}

on init
    message("")
    set_script_title("Wavetable Form Shapers Test")

    make_perfview
    set_ui_height(6)

    declare ui_wavetable $WT
    declare ui_menu $WarpMode
    declare ui_knob $Warp (0, 1000, 10)
    declare ui_knob $Morph (0, 1000, 10)

    set_knob_unit($Warp, $KNOB_UNIT_PERCENT)
    set_knob_unit($Morph, $KNOB_UNIT_PERCENT)

    move_control_px($WT, 96, 2)
    move_control_px($WarpMode, 0, 44)
    move_control_px($Warp, 0, 65)
    move_control_px($Morph, 0, 107)

    set_control_par(get_ui_id($WT), $CONTROL_PAR_WT_ZONE, 0)
    set_control_par(get_ui_id($WT), $CONTROL_PAR_WIDTH, 516)
    set_control_par(get_ui_id($WT), $CONTROL_PAR_HEIGHT, 251)

    add_menu_item($WarpMode, "Linear", $NI_WT_FORM_LINEAR)
    add_menu_item($WarpMode, "Sync 1", $NI_WT_FORM_SYNC1)
    add_menu_item($WarpMode, "Sync 2", $NI_WT_FORM_SYNC2)
    add_menu_item($WarpMode, "Sync 3", $NI_WT_FORM_SYNC3)
    add_menu_item($WarpMode, "Sync 4", $NI_WT_FORM_SYNC4)
    add_menu_item($WarpMode, "Sync 5", $NI_WT_FORM_SYNC5)
    add_menu_item($WarpMode, "Sync 6", $NI_WT_FORM_SYNC6)
    add_menu_item($WarpMode, "Bend 1 +", $NI_WT_FORM_BENDP)
    add_menu_item($WarpMode, "Bend 1 -", $NI_WT_FORM_BENDM)
    add_menu_item($WarpMode, "Bend 1 -+", $NI_WT_FORM_BENDMP)
    add_menu_item($WarpMode, "Bend 2 +", $NI_WT_FORM_BEND2P)
    add_menu_item($WarpMode, "Bend 2 -", $NI_WT_FORM_BEND2M)
    add_menu_item($WarpMode, "Bend 2 -+", $NI_WT_FORM_BEND2MP)
    add_menu_item($WarpMode, "Exp", $NI_WT_FORM_EXP)
    add_menu_item($WarpMode, "Log", $NI_WT_FORM_LOG)
    add_menu_item($WarpMode, "Log-Exp", $NI_WT_FORM_LOGEXP)
    add_menu_item($WarpMode, "PWM", $NI_WT_FORM_PWM)
    add_menu_item($WarpMode, "Asym 1 +", $NI_WT_FORM_ASYMP)
    add_menu_item($WarpMode, "Asym 1 -", $NI_WT_FORM_ASYMM)
    add_menu_item($WarpMode, "Asym 1 -+", $NI_WT_FORM_ASYMMP)
    add_menu_item($WarpMode, "Asym 2 +", $NI_WT_FORM_ASYM2P)
    add_menu_item($WarpMode, "Asym 2 -", $NI_WT_FORM_ASYM2M)
    add_menu_item($WarpMode, "Asym 2 -+", $NI_WT_FORM_ASYM2MP)
    add_menu_item($WarpMode, "2 Blinds", $NI_WT_FORM_2BLINDS)
    add_menu_item($WarpMode, "4 Blinds", $NI_WT_FORM_4BLINDS)
    add_menu_item($WarpMode, "6 Blinds", $NI_WT_FORM_6BLINDS)
    add_menu_item($WarpMode, "8 Blinds", $NI_WT_FORM_8BLINDS)
    add_menu_item($WarpMode, "Flip", $NI_WT_FORM_FLIP)
    add_menu_item($WarpMode, "Fold", $NI_WT_FORM_FOLD)
    add_menu_item($WarpMode, "Mirror", $NI_WT_FORM_MIRROR)
    add_menu_item($WarpMode, "Saturate", $NI_WT_FORM_SATURATE)
    add_menu_item($WarpMode, "Seesaw", $NI_WT_FORM_SEESAW)
    add_menu_item($WarpMode, "Quantize", $NI_WT_FORM_QUANTIZE)
    add_menu_item($WarpMode, "Wrap", $NI_WT_FORM_WRAP)

    $WarpMode := get_engine_par($ENGINE_PAR_WT_FORM_MODE, 0, -1, -1)
    $Warp := get_engine_par($ENGINE_PAR_WT_FORM, 0, -1, -1) / 1000
    $Morph := get_engine_par($ENGINE_PAR_WT_POSITION, 0, -1, -1) / 1000
end on

on ui_control ($WarpMode)
    set_engine_par($ENGINE_PAR_WT_FORM_MODE, $WarpMode, 0, -1, -1)
end on

on ui_control ($Warp)
    if (get_control_par(get_ui_id($Warp), $CONTROL_PAR_KEY_ALT) = 1)
        $Warp := 500
    end if

    set_engine_par($ENGINE_PAR_WT_FORM, $Warp * 1000, 0, -1, -1)
end on

on ui_control ($Morph)
    set_engine_par($ENGINE_PAR_WT_POSITION, $Morph * 1000, 0, -1, -1)
end on

